resources/svg/send-down.svg

<svg xmlns="http://www.w3.org/2000/svg" viewBox="0 0 15 15" fill="currentColor"><path fill-rule="evenodd" clip-rule="evenodd" d="M1 1L14 1V2L1 2V1ZM8 3L8 12.2929L11.1464 9.14645L11.8536 9.85355L7.5 14.2071L3.14645 9.85355L3.85355 9.14645L7 12.2929L7 3H8Z" fill="black"/></svg>

<svg xmlns="http://www.w3.org/2000/svg" viewBox="0 0 15 15" fill="currentColor"><path fill-rule="evenodd" clip-rule="evenodd" d="M1 1h13v1H1V1zm7 2v9.293l3.146-3.147.708.708L7.5 14.207 3.146 9.854l.708-.708L7 12.293V3h1z" fill="currentColor"/></svg>
